svg/emoji_u1f3bc.svg

<svg width="128" height="128" viewBox="0 0 128 128" fill="none" xmlns="http://www.w3.org/2000/svg">
<path d="M21.96 95.3597V83.0897H38.95C38.52 81.7897 38.21 80.4597 38.04 79.0897H21.96V63.4997H41.21C41.89 62.1697 42.67 60.8397 43.56 59.4997H21.96V44.5797H57.51C58.18 44.0397 58.82 43.5197 59.4 43.0797L58.88 40.5797H21.96V25.6597H55.79C55.56 24.2697 55.4 22.9397 55.3 21.6597H3.47998V99.3497H55.92C53.11 98.3797 50.51 97.0197 48.2 95.3497H21.96V95.3597Z" fill="#616266" style="fill:#616266;fill:color(display-p3 0.3804 0.3843 0.4000);fill-opacity:1;"/>
<path d="M81.6499 99.3599H124.52V95.3599H84.8599C83.7699 96.2999 82.6199 97.1299 81.4199 97.8199C81.4899 98.2699 81.5699 98.7899 81.6499 99.3599Z" fill="#616266" style="fill:#616266;fill:color(display-p3 0.3804 0.3843 0.4000);fill-opacity:1;"/>
<path d="M87.9502 25.6597H124.52V21.6597H87.9902C88.0902 23.0197 88.0702 24.3597 87.9502 25.6597Z" fill="#616266" style="fill:#616266;fill:color(display-p3 0.3804 0.3843 0.4000);fill-opacity:1;"/>
<path d="M88.21 63.4995H124.53V59.4995H83.54C85.29 60.5195 86.85 61.8495 88.21 63.4995Z" fill="#616266" style="fill:#616266;fill:color(display-p3 0.3804 0.3843 0.4000);fill-opacity:1;"/>
<path d="M124.52 44.5796V40.5796H82.1599C81.2099 41.9896 80.1999 43.3296 79.1699 44.5796H124.52Z" fill="#616266" style="fill:#616266;fill:color(display-p3 0.3804 0.3843 0.4000);fill-opacity:1;"/>
<path d="M124.52 83.0898V79.0898H93.12C93.04 80.5498 92.82 81.8798 92.52 83.0898H124.52Z" fill="#616266" style="fill:#616266;fill:color(display-p3 0.3804 0.3843 0.4000);fill-opacity:1;"/>
<path d="M87.1798 67.1898C82.6898 60.0498 75.9498 59.7398 70.9498 60.1998L69.0998 50.7898C77.9598 42.3998 88.6698 30.4998 83.8998 16.4198C79.8298 4.41978 73.5098 4.27979 70.3498 4.27979C67.1898 4.27979 54.8098 5.11979 59.0498 26.7698L62.7398 44.3398C57.2998 48.2898 39.6998 62.3798 40.9198 77.7498C41.7598 89.6298 54.1498 98.8298 67.5598 97.9498C68.9698 97.8698 72.0498 97.6498 73.1998 97.5598C73.1998 97.5598 76.2798 108.27 71.6598 114.55C68.8198 118.41 64.0698 119.6 59.9398 118.16C62.6798 116.79 64.4498 113.97 64.4498 110.86C64.0398 100.03 48.5098 100.03 48.0998 110.86C48.0998 118.67 53.4398 123.71 64.5998 123.71C69.0898 123.71 73.4398 120.45 75.6898 117.5C81.6298 109.72 78.0098 96.1298 78.0098 96.1298C85.7898 92.9598 95.0198 81.2198 87.1798 67.1898ZM71.4298 12.7498C75.4498 11.0398 81.7798 14.1898 80.3898 21.5898C79.1098 28.3898 72.7898 35.4198 67.1798 41.0398L64.9498 29.6798C63.4098 20.1898 66.3898 14.8898 71.4298 12.7498ZM66.0798 61.2898C59.0198 63.5798 55.2798 69.8398 56.5298 77.3498C57.7998 84.9398 61.9098 87.1998 65.3498 88.3098C65.4098 88.3298 67.7898 88.9898 68.0198 87.4998C68.1398 86.7598 67.2798 86.3298 66.4898 85.8298C65.8498 85.4298 65.1098 84.6698 64.3998 83.9698C60.4498 80.0598 60.7098 72.6198 67.6298 69.5998L72.2598 92.7398C61.9798 95.0498 50.9198 89.4698 50.5398 78.3898C49.9098 67.5598 56.2998 61.2998 64.8398 54.0098L66.0798 61.2898ZM83.3898 83.3298C82.5898 85.9098 80.8498 88.8598 77.0198 91.0398L72.9298 68.5398C82.5498 68.1898 85.1298 77.3998 83.3898 83.3298Z" fill="#616266" style="fill:#616266;fill:color(display-p3 0.3804 0.3843 0.4000);fill-opacity:1;"/>
</svg>

<?xml version="1.0" encoding="utf-8"?>
<!-- Generator: Adobe Illustrator 25.2.3, SVG Export Plug-In . SVG Version: 6.00 Build 0)  -->
<svg version="1.1" id="Layer_3" xmlns="http://www.w3.org/2000/svg" xmlns:xlink="http://www.w3.org/1999/xlink" x="0px" y="0px"
	 viewBox="0 0 128 128" style="enable-background:new 0 0 128 128;" xml:space="preserve">
<g>
	<g>
		<path style="fill:#546E7A;" d="M21.96,95.36V83.09h16.99c-0.43-1.3-0.74-2.63-0.91-4H21.96V63.5h19.25c0.68-1.33,1.46-2.66,2.35-4
			h-21.6V44.58h35.55c0.67-0.54,1.31-1.06,1.89-1.5l-0.52-2.5H21.96V25.66h33.83c-0.23-1.39-0.39-2.72-0.49-4H3.48v77.69h52.44
			c-2.81-0.97-5.41-2.33-7.72-4H21.96z"/>
		<path style="fill:#546E7A;" d="M81.65,99.36h42.87v-4H84.86c-1.09,0.94-2.24,1.77-3.44,2.46C81.49,98.27,81.57,98.79,81.65,99.36z
			"/>
		<path style="fill:#546E7A;" d="M87.95,25.66h36.57v-4H87.99C88.09,23.02,88.07,24.36,87.95,25.66z"/>
		<path style="fill:#546E7A;" d="M88.21,63.5h36.32v-4H83.54C85.29,60.52,86.85,61.85,88.21,63.5z"/>
		<path style="fill:#546E7A;" d="M124.52,44.58v-4H82.16c-0.95,1.41-1.96,2.75-2.99,4H124.52z"/>
		<path style="fill:#546E7A;" d="M124.52,83.09v-4h-31.4c-0.08,1.46-0.3,2.79-0.6,4H124.52z"/>
	</g>
	<g>
		<path style="fill:#546E7A;" d="M87.18,67.19c-4.49-7.14-11.23-7.45-16.23-6.99l-1.85-9.41c8.86-8.39,19.57-20.29,14.8-34.37
			c-4.07-12-10.39-12.14-13.55-12.14c-3.16,0-15.54,0.84-11.3,22.49l3.69,17.57C57.3,48.29,39.7,62.38,40.92,77.75
			c0.84,11.88,13.23,21.08,26.64,20.2c1.41-0.08,4.49-0.3,5.64-0.39c0,0,3.08,10.71-1.54,16.99c-2.84,3.86-7.59,5.05-11.72,3.61
			c2.74-1.37,4.51-4.19,4.51-7.3c-0.41-10.83-15.94-10.83-16.35,0c0,7.81,5.34,12.85,16.5,12.85c4.49,0,8.84-3.26,11.09-6.21
			c5.94-7.78,2.32-21.37,2.32-21.37C85.79,92.96,95.02,81.22,87.18,67.19z M71.43,12.75c4.02-1.71,10.35,1.44,8.96,8.84
			c-1.28,6.8-7.6,13.83-13.21,19.45l-2.23-11.36C63.41,20.19,66.39,14.89,71.43,12.75z M66.08,61.29
			c-7.06,2.29-10.8,8.55-9.55,16.06c1.27,7.59,5.38,9.85,8.82,10.96c0.06,0.02,2.44,0.68,2.67-0.81c0.12-0.74-0.74-1.17-1.53-1.67
			c-0.64-0.4-1.38-1.16-2.09-1.86c-3.95-3.91-3.69-11.35,3.23-14.37l4.63,23.14c-10.28,2.31-21.34-3.27-21.72-14.35
			c-0.63-10.83,5.76-17.09,14.3-24.38L66.08,61.29z M83.39,83.33c-0.8,2.58-2.54,5.53-6.37,7.71l-4.09-22.5
			C82.55,68.19,85.13,77.4,83.39,83.33z"/>
	</g>
</g>
</svg>
